images/commentLine.svg

<svg width="120" height="120" viewBox="0 0 120 120" fill="none" xmlns="http://www.w3.org/2000/svg">
    <path d="M26.6117 102.4C26.0784 102.4 25.6117 102.2 25.2117 101.8C24.8117 101.4 24.6117 100.933 24.6117 100.4C24.6117 100.133 24.7117 99.7333 24.9117 99.2L59.1117 17.2C59.6451 16 60.5117 15.4 61.7117 15.4H65.6117C66.1451 15.4 66.6117 15.6 67.0117 16C67.4117 16.4 67.6117 16.8667 67.6117 17.4C67.6117 17.8667 67.5451 18.2667 67.4117 18.6L33.1117 100.6C32.5784 101.8 31.7117 102.4 30.5117 102.4H26.6117ZM54.3461 102.4C53.8128 102.4 53.3461 102.2 52.9461 101.8C52.5461 101.4 52.3461 100.933 52.3461 100.4C52.3461 100.133 52.4461 99.7333 52.6461 99.2L86.8461 17.2C87.3794 16 88.2461 15.4 89.4461 15.4H93.3461C93.8794 15.4 94.3461 15.6 94.7461 16C95.1461 16.4 95.3461 16.8667 95.3461 17.4C95.3461 17.8667 95.2794 18.2667 95.1461 18.6L60.8461 100.6C60.3128 101.8 59.4461 102.4 58.2461 102.4H54.3461Z" fill="#C5C5C5" />
</svg>

<svg width="16" height="16" viewBox="0 0 105 105" fill="none" xmlns="http://www.w3.org/2000/svg">
    <path
        d="M26.612 102.4c-.534 0-1-.2-1.4-.6-.4-.4-.6-.867-.6-1.4 0-.267.1-.667.3-1.2l34.2-82c.533-1.2 1.4-1.8 2.6-1.8h3.9c.533 0 1 .2 1.4.6.4.4.6.867.6 1.4 0 .467-.067.867-.2 1.2l-34.3 82c-.534 1.2-1.4 1.8-2.6 1.8h-3.9zm27.734 0c-.533 0-1-.2-1.4-.6-.4-.4-.6-.867-.6-1.4 0-.267.1-.667.3-1.2l34.2-82c.533-1.2 1.4-1.8 2.6-1.8h3.9c.533 0 1 .2 1.4.6.4.4.6.867.6 1.4 0 .467-.067.867-.2 1.2l-34.3 82c-.533 1.2-1.4 1.8-2.6 1.8h-3.9z"
        fill="#C5C5C5" />
</svg>
